X: 25400
T: March Of The Gaelic Order, The
R: jig
M: 6/8
K: Edorian
c/d/cA cdc|B/d/BG GAB|A/B/AA Ad=c|BGB edB|cAc edc|B/d/eB GFD|
E/F/EE Eec/B/|A/B/AA AFD|E/F/EE Eec/B/|A/B/AA AFD|E/F/EE FGF|E/F/EE E2:|
c/d/cE Ace|B/c/BE E^GB|c/e/cA Aec|BGB edB|cAc edc|B/d/eB GFD|
E/F/EE Eec/B/|A/B/AA AFD|E/F/EE Eec/B/|A/B/AA AFD|E/F/EE FGF|E/F/ E2 E2:|

